icon-themes/breeze_svg/cmd/sc_grafred.svg

<svg viewBox="0 0 16 16" xmlns="http://www.w3.org/2000/svg"><path d="m8 2c-1.0718 3.8182-4 6.0729406-4 8.181641 0 2.1087 1.79086 3.818359 4 3.818359s4-1.709659 4-3.818359c0-2.1087004-2.9282-4.363441-4-8.181641zm2.75 6.2324219a3.4285713 3.2727273 0 0 1 .677734 1.9492191 3.4285713 3.2727273 0 0 1 -3.427734 3.273437 3.4285713 3.2727273 0 0 1 -2.0371094-.646484 3.9999998 3.8181818 0 0 0 .8945313.099609 3.9999998 3.8181818 0 0 0 4.0000001-3.8164061 3.9999998 3.8181818 0 0 0 -.107422-.859375z" fill="#da4453"/></svg>

<svg xmlns="http://www.w3.org/2000/svg" viewBox="0 0 16 16">
 <path 
     style="fill:#da4453" 
     d="M 8 2 C 6.9282 5.8182 4 8.0729406 4 10.181641 C 4 12.290341 5.79086 14 8 14 C 10.20914 14 12 12.290341 12 10.181641 C 12 8.0729406 9.0718 5.8182 8 2 z M 10.75 8.2324219 A 3.4285713 3.2727273 0 0 1 11.427734 10.181641 A 3.4285713 3.2727273 0 0 1 8 13.455078 A 3.4285713 3.2727273 0 0 1 5.9628906 12.808594 A 3.9999998 3.8181818 0 0 0 6.8574219 12.908203 A 3.9999998 3.8181818 0 0 0 10.857422 9.0917969 A 3.9999998 3.8181818 0 0 0 10.75 8.2324219 z "
     />
 </svg>
